X: 211
T: WALTZ: Petranu-Valse
C: C: Oliushka Tikhaia; S: ThZCh
C: Set Leaders: Oliushka, Anton, Sophie
Z: Oliushka Tikhaia ed., Anton Zille ed., Oleg Naumov arr.; Bregolas at The Session
N: https://thesession.org/members/26966/sets/95961
R: Waltz
M: 3/4
L: 1/8
Q: 1/4=144
K: Gmaj
D GA|:"G"B2 BA B/c/d|"D/G"A4 BA|"C/G"G2 FG E2|"D/G"D4 GA|
"G"BA B B2 d|"D/G"A3 g fg|"C/G"eG ef e2|"D/G"d3 c BA|
"G"B2 BA B/c/d|"D/G"A4 BA|"C/G"G2 F G2 E|"D/G"DC D2 GA|
"G"BA B B2 d|"D/G"A6|"C"CD EG "D"F2|1 "G"G3 D GA:|2 "G"G3 F ED||
"C"C3 D EG|"D"FE F2 D2|"Em"B3 A GF|"G"GF EF DE|
"C"C3 D EG|"D"FE F2 D2|"G"G3 A B2|"G"d2 "D/F#"g2 "D"fg|
"Em"eG ef ef|"D"dF de de|"C"cB cE cd|"G"B3 A GA|
"G"B2 BA B/c/d|"D"A6|"C"CD EG "D"F2|"G"G3 F ED|
"C"C3 D EG|"D"FE F2 D2|"Em"B3 D GA|"Em"cB AG FG|
"C"C3 D EG|"D"FE F2 D2|"Em"G3 A B2|"G"d2 g2 "D/F#"fg|
"Em"ed eG ef|"D"dc dF de|"Cm"c_E cd c2|"G"B3 A GA|
"G"B2 BA B/c/d|"D"A6|"C"CD EG "D"F2|"G"G6||

